(NB-008-080-SETUP3)
(T3  D=3. CR=0. - ZMIN=-10.5 - FLAT END MILL)
G90 G94 G91.1 G40 G49 G17
G21
G28 G91 Z0.
G90

(2D CONTOUR2)
M5
M9
T3 M6
S15000 M3
G54
M8
G0 X-50.3 Y99.4
G43 Z15. H3
Z5.
G1 Z0. F1500.
Z-7.7 F30.
G19 G2 Y99.1 Z-8. R0.3
G1 Y98.8 F1500.
G17 G3 X-50. Y98.5 R0.3
G1 X-13.
X-11.5
Y95.5
X-7.5
G2 X-4.5 Y92.5 R3.
G1 Y88.5
X-3.
X-1.5
Y11.5
X-4.5
Y7.5
G2 X-7.5 Y4.5 R3.
G1 X-11.5
Y1.5
X-88.5
Y4.5
X-92.5
G2 X-95.5 Y7.5 R3.
G1 Y11.5
X-98.5
Y88.5
X-95.5
Y92.5
G2 X-92.5 Y95.5 R3.
G1 X-88.5
Y98.5
X-50.
G3 X-49.7 Y98.8 R0.3
G1 Y99.1
G19 G3 Y99.4 Z-7.7 R0.3
G0 Z10.
X-50.3
Z5.
G1 Z-3.5 F1500.
Z-9.75 F30.
Y99.1
Y98.8 F1500.
G17 G3 X-50. Y98.5 R0.3
G1 X-48.5
X-47. Z-10.5 F30.
X-28.333 F1500.
X-26.833 Z-9.75
X-23.833
X-22.333 Z-10.5 F30.
X-11.5 F1500.
Y95.5
X-7.5
G2 X-4.5 Y92.5 R3.
G1 Y88.5
X-1.5
Y77.667
Y76.167 Z-9.75
Y73.167
Y71.667 Z-10.5 F30.
Y53. F1500.
Y51.5 Z-9.75
Y48.5
Y47. Z-10.5 F30.
Y28.333 F1500.
Y26.833 Z-9.75
Y23.833
Y22.333 Z-10.5 F30.
Y11.5 F1500.
X-4.5
Y7.5
G2 X-7.5 Y4.5 R3.
G1 X-11.5
Y1.5
X-22.333
X-23.833 Z-9.75
X-26.833
X-28.333 Z-10.5 F30.
X-47. F1500.
X-48.5 Z-9.75
X-51.5
X-53. Z-10.5 F30.
X-71.667 F1500.
X-73.167 Z-9.75
X-76.167
X-77.667 Z-10.5 F30.
X-88.5 F1500.
Y4.5
X-92.5
G2 X-95.5 Y7.5 R3.
G1 Y11.5
X-98.5
Y22.333
Y23.833 Z-9.75
Y26.833
Y28.333 Z-10.5 F30.
Y47. F1500.
Y48.5 Z-9.75
Y51.5
Y53. Z-10.5 F30.
Y71.667 F1500.
Y73.167 Z-9.75
Y76.167
Y77.667 Z-10.5 F30.
Y88.5 F1500.
X-95.5
Y92.5
G2 X-92.5 Y95.5 R3.
G1 X-88.5
Y98.5
X-77.667
X-76.167 Z-9.75
X-73.167
X-71.667 Z-10.5 F30.
X-53. F1500.
X-51.5 Z-9.75
X-50.
G3 X-49.7 Y98.8 R0.3
G1 Y99.4
G0 Z15.

M9
G28 G91 Z0.
G28 X0. Y0.
M30
